X: 331
P: Longways for as many as will
M: C|
L: 1/8
K: G
ggg2 g2b2 | a3a a2e2 | ggg2 g2b2 | g3e g2d2 |
gfga b2(ag) | a3a a2e2 | gfga b2(ab) | g3e g2d2 |\
e2g2 d2e2 | B2d2 A2E2 | g3d e3c | dc BA G2 |]

